<?xml version="1.0" encoding="UTF-8"?>
<map version="1.10" tiledversion="1.12.1" orientation="orthogonal" renderorder="right-down" width="150" height="15" tilewidth="32" tileheight="32" infinite="0" nextlayerid="6" nextobjectid="96">
 <tileset firstgid="1" source="terrain-tileset.tsx"/>
 <layer id="1" name="floorAndWalls" width="150" height="15">
  <data encoding="csv">
20,20,20,20,20,20,20,20,20,20,20,20,20,20,20,20,20,20,7,38,38,38,38,8,20,20,20,20,20,20,20,20,20,20,20,20,20,20,20,20,20,20,20,20,20,20,20,20,20,20,20,20,20,20,20,20,20,20,20,20,20,20,20,20,20,20,20,20,20,20,20,20,20,20,20,20,20,20,20,20,20,20,20,20,20,20,20,20,20,20,20,20,20,20,20,20,20,20,20,20,20,20,20,7,38,38,38,38,38,38,38,38,38,38,38,38,38,38,38,38,38,38,38,38,38,38,38,38,38,38,8,20,20,20,20,20,20,20,20,20,20,20,20,20,20,20,20,20,20,20,
20,20,20,20,20,20,20,20,20,20,20,20,20,20,20,7,38,38,39,0,0,0,0,37,38,38,38,38,38,38,38,38,38,8,20,20,20,20,20,20,20,20,20,20,20,20,20,20,20,20,20,20,20,20,20,20,20,20,20,20,20,20,20,20,20,20,20,20,20,20,7,38,38,38,38,38,38,38,38,38,8,20,20,20,20,20,20,20,20,20,20,20,20,20,20,20,20,20,20,7,38,38,38,39,0,0,0,0,0,0,0,0,0,0,0,0,0,0,0,0,0,0,0,0,0,0,0,0,0,0,37,38,38,8,20,20,20,20,20,20,20,20,20,20,20,20,20,20,20,20,
20,20,20,20,20,20,20,20,20,20,20,20,20,7,38,39,0,0,0,0,0,0,0,0,0,0,0,0,0,0,0,0,0,37,38,38,38,38,38,38,38,38,38,38,38,38,38,38,38,38,38,38,38,38,38,38,38,38,38,38,38,38,38,38,38,8,20,20,7,38,39,0,0,0,0,0,0,0,0,0,37,38,38,38,38,38,38,38,8,20,7,38,38,38,38,38,38,38,38,39,0,0,0,0,0,0,0,0,0,0,0,0,0,0,0,0,0,0,0,0,0,0,0,0,0,0,0,0,0,0,0,0,0,37,38,38,38,38,38,38,38,38,8,20,20,20,20,20,20,20,
20,20,20,7,38,38,38,38,38,38,38,38,38,39,0,0,0,0,0,0,0,0,0,0,0,0,0,0,0,0,0,0,0,0,0,0,0,0,0,0,0,0,0,0,0,0,0,0,0,0,0,0,0,0,0,0,0,0,0,0,0,0,0,0,0,37,38,38,39,0,0,0,0,0,0,0,0,0,0,0,0,0,0,0,0,0,0,0,37,38,39,0,0,0,0,0,0,0,0,0,0,0,0,0,0,0,0,0,0,0,0,0,0,0,0,0,0,0,0,0,0,0,0,0,0,0,0,0,0,0,0,0,0,0,0,0,0,0,0,0,0,0,37,38,8,20,20,20,20,20,
20,20,20,21,0,0,0,0,0,0,0,0,0,0,0,0,0,0,0,0,0,0,0,0,0,0,0,0,0,0,0,0,0,0,0,0,0,0,0,0,0,0,0,0,0,0,0,0,0,0,0,0,0,0,0,0,0,0,0,0,0,0,0,0,0,0,0,0,0,0,0,0,0,0,0,0,0,0,0,0,0,0,0,0,0,0,0,0,0,0,0,0,0,0,0,0,0,0,0,0,0,0,18,1,2,2,2,2,2,2,2,3,0,0,1,3,0,0,1,3,0,0,1,3,0,0,1,3,0,0,0,0,0,0,0,0,0,0,0,0,0,0,0,0,37,38,38,8,20,20,
20,20,20,21,0,0,0,0,0,0,0,0,0,0,0,0,0,0,0,0,0,0,0,0,0,0,0,0,0,0,0,0,0,0,0,0,0,0,0,0,0,0,0,0,0,0,0,0,0,0,0,0,0,0,0,0,0,0,0,0,0,0,0,0,0,0,0,0,0,0,0,0,0,0,0,0,0,0,0,0,0,0,0,0,0,0,0,0,0,0,0,0,0,0,0,0,0,0,0,0,0,0,18,37,38,38,38,38,38,38,38,39,0,0,37,39,0,0,37,39,0,0,37,39,0,0,37,39,0,0,73,75,0,0,0,0,0,0,0,0,0,0,0,0,0,0,0,37,8,20,
20,20,20,21,0,0,0,0,0,0,0,0,0,0,0,0,0,0,0,0,0,0,0,0,0,0,0,0,0,0,0,0,0,0,0,0,0,0,0,0,0,0,0,0,0,0,0,0,0,0,0,0,0,0,0,0,0,0,0,0,0,0,0,0,0,0,0,0,0,0,0,0,0,0,0,0,0,0,0,0,0,0,0,0,0,0,0,0,0,0,0,0,0,0,0,0,0,0,0,0,0,0,18,0,0,0,0,0,0,0,0,0,0,0,0,0,0,0,0,0,0,0,0,0,0,0,0,0,0,0,0,0,0,0,0,0,0,0,0,0,0,0,0,0,0,0,0,0,19,20,
20,20,20,21,0,0,0,0,0,0,0,0,0,0,0,0,0,0,0,0,0,0,0,0,0,0,0,0,0,0,0,0,0,0,18,1,2,2,2,2,2,2,2,2,2,2,2,2,2,2,2,2,2,2,2,2,2,2,2,2,3,0,0,0,0,0,0,0,0,0,0,0,0,0,0,0,0,0,0,0,0,0,0,0,0,0,0,0,0,0,0,0,0,0,0,0,0,0,0,0,0,0,18,0,0,0,0,0,0,0,0,0,0,0,0,0,0,0,0,0,0,0,0,0,0,0,0,0,0,0,0,0,0,0,0,0,0,0,0,0,0,0,0,0,0,0,0,0,19,20,
20,20,20,21,0,0,0,0,0,0,0,0,0,0,0,0,0,0,0,0,0,0,0,0,0,0,0,0,0,0,0,0,0,0,18,37,38,38,38,38,38,38,38,38,38,38,38,38,38,38,38,38,38,38,38,38,38,38,38,38,62,0,0,0,0,0,0,0,0,0,0,0,0,0,0,0,0,0,0,0,0,0,0,0,0,0,0,0,0,0,0,0,0,0,0,0,0,0,0,0,0,0,0,0,0,0,0,0,0,0,0,0,0,0,0,0,0,0,0,0,0,0,0,0,0,0,0,0,0,0,0,0,0,0,0,0,0,0,0,0,0,0,0,0,0,0,0,0,19,20,
20,20,20,21,0,0,0,0,0,0,0,0,0,0,0,0,0,0,0,0,0,0,0,0,0,0,0,0,0,0,0,0,0,0,18,0,0,0,0,0,0,0,0,0,0,0,0,0,0,0,0,0,0,0,0,0,0,0,0,0,23,0,0,0,0,0,0,0,0,0,0,0,0,0,0,0,0,0,0,0,0,0,0,0,0,0,0,0,0,0,0,0,0,0,0,0,0,0,0,0,0,0,0,0,0,0,0,0,0,0,0,0,0,0,0,0,0,0,0,0,0,0,0,0,0,0,0,0,0,0,0,0,0,0,0,0,0,0,0,0,0,0,0,0,0,0,0,0,19,20,
20,20,20,21,0,0,0,0,0,0,0,0,0,0,0,0,0,0,0,0,0,0,0,0,0,0,0,70,75,0,0,0,0,0,0,0,0,0,0,0,0,0,0,0,0,0,0,0,0,0,0,0,0,0,0,0,0,0,0,0,23,0,0,0,0,0,0,0,0,0,0,0,0,0,0,0,0,0,0,0,0,0,0,0,0,0,0,0,0,0,0,0,0,0,0,0,0,0,0,5,0,0,0,0,0,0,0,0,0,0,0,0,0,0,0,0,0,0,0,0,0,0,0,0,0,0,0,0,0,0,0,0,0,0,0,0,0,0,0,0,0,0,0,0,0,0,0,0,19,20,
20,20,20,21,0,0,0,1,2,2,2,3,0,0,0,0,0,0,0,0,0,70,74,74,74,74,74,89,0,0,0,0,0,0,0,0,0,0,0,0,0,0,0,0,0,0,0,0,0,0,0,0,0,0,0,0,0,0,0,0,23,0,0,0,0,0,0,0,0,0,0,0,0,0,0,0,0,0,0,0,0,0,0,0,0,0,0,0,0,0,0,0,0,0,0,5,0,0,73,89,0,0,0,0,0,0,0,0,0,0,0,0,0,0,0,0,0,0,0,0,0,0,0,0,0,0,0,0,0,0,0,0,0,0,0,0,0,0,0,0,0,0,0,0,0,0,0,0,19,20,
20,20,20,21,0,0,0,19,20,20,20,21,0,0,0,0,0,0,0,0,70,89,0,0,0,0,0,0,0,0,0,0,0,0,0,0,0,0,0,0,0,0,0,0,0,0,0,0,0,0,0,0,0,0,0,0,0,0,0,0,23,0,0,0,0,0,0,0,0,0,0,0,0,0,0,1,2,2,3,0,0,0,0,0,0,0,0,0,0,0,0,0,0,0,73,89,0,0,0,0,0,0,0,0,0,0,0,0,0,0,0,0,0,0,0,0,0,0,0,0,0,0,0,0,0,0,0,0,0,0,0,0,0,0,0,0,0,0,0,0,0,0,0,0,0,0,0,0,19,20,
20,20,20,21,0,0,1,26,20,20,20,25,3,0,0,0,0,0,70,74,89,0,0,0,0,0,0,0,0,0,0,0,0,0,0,0,0,0,0,0,0,0,0,0,0,0,0,0,0,0,0,0,0,0,0,0,0,0,0,0,23,0,0,0,0,0,1,2,2,2,2,2,2,2,2,26,20,20,25,2,2,2,2,2,2,2,2,2,2,2,2,3,0,0,0,0,0,0,0,0,0,0,1,3,0,0,0,1,3,0,0,0,0,1,3,0,0,0,0,1,2,2,2,2,2,2,2,2,2,2,2,2,2,2,2,2,2,2,2,2,2,2,2,2,2,2,2,2,26,20,
20,20,20,25,2,2,26,20,20,20,20,20,25,2,2,2,2,2,80,0,0,0,0,0,0,0,1,2,2,2,2,2,2,2,2,2,2,2,2,2,2,2,2,2,2,2,2,2,2,2,2,2,2,2,2,2,3,0,0,0,23,0,0,0,0,0,19,20,20,20,20,20,20,20,20,20,20,20,20,20,20,20,20,20,20,20,20,20,20,20,20,21,0,0,0,0,0,0,0,0,0,0,19,21,0,0,0,19,21,0,0,0,0,19,21,0,0,0,0,19,20,20,20,20,20,20,20,20,20,20,20,20,20,20,20,20,20,20,20,20,20,20,20,20,20,20,20,20,20,20
</data>
 </layer>
 <objectgroup id="2" name="floorAndWallsCollider">
  <object id="2" x="0" y="0" width="128" height="480"/>
  <object id="3" x="128" y="448" width="480" height="32"/>
  <object id="4" x="192" y="416" width="224" height="32"/>
  <object id="5" x="224" y="352" width="160" height="64"/>
  <object id="6" x="576" y="416" width="96" height="32"/>
  <object id="7" x="640" y="384" width="64" height="32"/>
  <object id="8" x="672" y="352" width="224" height="32"/>
  <object id="9" x="864" y="320" width="64" height="32"/>
  <object id="10" x="832" y="448" width="992" height="32"/>
  <object id="11" x="1120" y="224" width="832" height="64"/>
  <object id="12" x="1920" y="288" width="32" height="192"/>
  <object id="13" x="2112" y="416" width="832" height="64"/>
  <object id="14" x="2400" y="384" width="128" height="32"/>
  <object id="15" x="3008" y="384" width="64" height="32"/>
  <object id="19" x="3264" y="416" width="64" height="64"/>
  <object id="22" x="3296" y="128" width="288" height="64"/>
  <object id="23" x="3648" y="128" width="64" height="64"/>
  <object id="24" x="3776" y="128" width="64" height="64"/>
  <object id="25" x="3904" y="128" width="64" height="64"/>
  <object id="26" x="4032" y="128" width="64" height="64"/>
  <object id="27" x="4160" y="160" width="64" height="32"/>
  <object id="29" x="3808" y="416" width="992" height="64"/>
  <object id="61" x="3136" y="352" width="64" height="32"/>
  <object id="62" x="3168" y="320" width="32" height="32"/>
  <object id="63" x="3424" y="416" width="64" height="64"/>
  <object id="65" x="3039.65" y="352" width="32.3489" height="32.1076"/>
  <object id="66" x="3616" y="416" width="64" height="64"/>
  <object id="30" x="128" y="-1.62298" width="317.508" height="129.623"/>
  <object id="31" x="448" y="0" width="64" height="96"/>
  <object id="32" x="512" y="0" width="96" height="64"/>
  <object id="33" x="608" y="0" width="128" height="32"/>
  <object id="34" x="736" y="0" width="320" height="64"/>
  <object id="36" x="1056" y="0" width="1024" height="96"/>
  <object id="37" x="2080" y="0" width="128" height="128"/>
  <object id="38" x="2208" y="0" width="64" height="96"/>
  <object id="39" x="2272" y="0" width="288" height="64"/>
  <object id="41" x="2560" y="0" width="640" height="96"/>
  <object id="44" x="2816" y="96" width="96" height="32"/>
  <object id="45" x="3200" y="2.43447" width="127.923" height="61.5655"/>
  <object id="46" x="3328" y="0" width="832" height="32"/>
  <object id="47" x="4160" y="0" width="96" height="64"/>
  <object id="48" x="4256" y="2.43447" width="547.214" height="93.5655"/>
  <object id="49" x="4544" y="96" width="256" height="32"/>
  <object id="50" x="4608" y="128" width="192" height="32"/>
  <object id="51" x="4704" y="160" width="96" height="32"/>
  <object id="52" x="4736" y="192" width="64" height="224"/>
 </objectgroup>
 <objectgroup id="5" name="interactiveObjects">
  <object id="56" name="ladder" x="1088" y="224" width="32" height="96"/>
  <object id="57" name="pit" x="608" y="448" width="224" height="32"/>
  <object id="58" name="pit" x="1824" y="448" width="288" height="32"/>
  <object id="59" name="pit" x="2944" y="448" width="864" height="32"/>
  <object id="68" name="ladder" x="3264" y="128" width="32" height="128"/>
  <object id="71" name="diamond" x="1312" y="384" width="32" height="32"/>
  <object id="72" name="diamond" x="1344" y="384" width="32" height="32"/>
  <object id="74" name="diamond" x="1376" y="384" width="32" height="32"/>
  <object id="76" name="bonusBlock" x="4352" y="320" width="32" height="32"/>
  <object id="78" name="bonusBlock" x="4416" y="320" width="32" height="32"/>
  <object id="79" name="bonusBlock" x="4384" y="320" width="32" height="32"/>
  <object id="85" name="bonusBlock" x="4352" y="224" width="32" height="32"/>
  <object id="86" name="bonusBlock" x="4384" y="224" width="32" height="32"/>
  <object id="87" name="bonusBlock" x="4416" y="224" width="32" height="32"/>
  <object id="91" name="finishLine" x="4672" y="320" width="32" height="96"/>
 </objectgroup>
 <objectgroup id="4" name="actors">
  <object id="54" name="player" x="288" y="224" width="32" height="32"/>
  <object id="88" name="enemyStar" x="4384" y="288" width="32" height="32">
   <properties>
    <property name="walkLength" type="int" value="2"/>
   </properties>
  </object>
  <object id="89" name="enemyStar" x="4384" y="192" width="32" height="32">
   <properties>
    <property name="walkLength" type="int" value="2"/>
   </properties>
  </object>
  <object id="90" name="enemyStar" x="3872" y="384" width="32" height="32">
   <properties>
    <property name="walkLength" type="int" value="25"/>
   </properties>
  </object>
  <object id="94" name="enemyStar" x="896" y="256" width="32" height="32">
   <properties>
    <property name="walkLength" type="int" value="0"/>
   </properties>
  </object>
 </objectgroup>
</map>
