<?xml version="1.0" encoding="UTF-8"?>
<map version="1.10" tiledversion="1.12.1" orientation="orthogonal" renderorder="right-down" width="150" height="10" tilewidth="32" tileheight="32" infinite="0" backgroundcolor="#b2b4ff" nextlayerid="7" nextobjectid="171">
 <tileset firstgid="1" source="terrain-tileset.tsx"/>
 <layer id="1" name="floorAndWalls" width="150" height="10">
  <data encoding="csv">
21,0,0,0,0,0,0,0,0,0,0,0,0,0,0,0,0,0,0,0,37,38,38,38,8,20,20,20,20,20,20,20,7,38,39,0,0,0,0,0,0,0,0,0,0,0,0,0,0,0,0,0,0,0,0,0,0,0,0,0,0,0,0,0,0,0,0,0,0,0,0,0,0,0,0,0,0,0,0,0,0,0,0,0,0,0,0,0,0,0,0,0,0,0,0,0,0,0,0,0,0,0,0,0,0,0,0,0,0,0,0,0,0,0,0,0,0,0,0,0,0,0,0,0,0,0,0,0,0,0,0,0,0,0,0,0,0,0,0,0,0,0,0,0,0,0,0,0,19,20,
21,0,0,0,0,0,0,0,0,0,0,0,0,0,0,0,0,0,0,0,0,0,0,0,37,38,38,38,38,38,38,38,39,0,0,0,0,0,0,0,0,0,0,0,0,0,0,0,0,0,0,0,0,0,0,0,0,0,0,0,0,0,0,0,0,0,0,0,0,0,0,0,0,0,0,0,0,0,0,0,0,0,0,0,0,0,0,0,0,0,0,0,0,0,0,0,0,0,0,0,0,0,0,0,0,0,0,0,0,0,0,0,0,0,0,0,0,0,0,0,0,0,0,0,0,0,0,0,0,0,0,0,0,0,0,0,0,0,0,0,0,0,0,0,0,0,0,0,19,20,
21,0,0,0,0,0,0,0,0,0,0,0,0,0,0,0,0,0,0,0,0,0,0,0,0,0,0,0,0,0,0,0,0,0,0,0,0,0,0,0,0,0,0,1,2,2,2,2,2,2,2,2,2,2,64,75,18,73,65,2,2,3,0,0,0,0,0,0,0,0,0,0,0,0,0,0,0,0,0,0,0,0,0,0,0,0,0,0,0,0,0,0,0,0,0,0,0,0,0,0,0,0,0,0,0,0,0,0,0,0,0,0,0,0,0,0,0,0,0,0,0,0,0,0,0,0,0,0,0,0,0,0,0,0,0,0,0,0,0,0,0,0,0,0,0,0,0,0,19,20,
21,0,0,0,0,0,0,0,0,0,0,0,0,0,0,0,0,0,0,0,0,0,0,0,0,0,0,0,0,0,0,0,0,0,0,0,0,0,0,0,0,0,0,37,38,38,38,38,38,38,38,38,38,38,39,0,18,0,37,38,38,39,0,0,0,0,0,0,0,0,0,0,0,0,0,0,0,0,0,0,0,0,0,0,0,0,0,0,0,0,0,0,0,0,0,0,0,0,0,0,0,0,0,0,0,0,0,0,0,0,0,0,0,0,0,0,0,0,0,0,0,0,0,0,0,0,0,0,0,0,0,0,0,0,0,0,0,0,0,0,0,0,0,0,0,0,0,0,19,20,
21,0,0,0,0,0,0,0,0,0,0,0,0,0,0,0,0,0,0,0,0,0,0,0,0,0,0,0,0,0,0,0,0,0,0,0,0,0,0,0,0,0,0,0,0,0,0,0,0,0,0,0,0,0,0,0,18,0,0,0,0,0,0,0,0,0,0,0,0,0,0,0,0,0,0,0,0,0,0,0,0,0,0,0,0,0,0,0,0,0,0,0,0,0,0,0,0,0,0,0,0,0,0,0,0,0,0,0,0,0,0,0,0,0,0,0,0,0,0,0,0,0,0,0,0,0,0,0,0,0,5,0,0,0,0,0,0,0,0,0,0,0,0,0,0,0,0,0,19,20,
21,0,0,0,0,0,0,0,0,0,0,0,0,0,0,0,0,0,0,0,0,0,0,5,0,0,0,0,0,0,0,0,0,0,0,0,0,0,0,0,0,0,0,0,0,0,0,0,0,0,0,0,0,0,0,0,18,0,0,0,0,0,0,0,0,0,0,0,0,0,0,0,0,0,0,0,0,0,0,0,0,0,0,0,0,0,0,0,0,0,0,0,0,0,0,0,0,0,0,0,0,0,0,0,0,0,0,0,0,0,0,0,0,0,0,0,0,0,0,0,0,0,0,0,0,0,0,0,5,0,23,0,5,0,0,0,0,0,0,0,0,0,0,0,0,0,0,0,19,20,
21,0,0,0,0,0,0,0,0,0,0,0,0,0,0,0,0,0,0,0,0,0,1,80,0,0,0,0,0,0,0,0,0,0,0,0,0,0,0,0,0,0,0,0,0,0,0,0,0,0,0,0,0,0,0,0,18,0,0,0,0,0,0,0,0,0,0,0,0,0,0,0,0,0,0,0,0,0,0,0,0,0,0,0,0,0,0,0,0,0,0,0,0,0,0,0,0,0,0,0,0,0,0,0,0,0,0,0,0,0,0,0,0,0,0,0,0,0,0,0,0,0,0,0,0,0,5,0,23,0,23,0,23,0,5,0,0,0,0,0,0,0,0,0,0,0,0,0,19,20,
21,0,0,0,0,0,0,0,0,0,0,0,0,0,0,0,0,0,1,2,2,2,20,21,0,0,0,0,0,0,0,0,0,0,0,0,0,0,0,0,0,0,0,0,0,0,0,0,0,0,0,0,0,0,0,0,18,0,0,0,0,0,0,0,0,0,0,0,0,0,0,0,0,0,0,0,0,0,0,0,0,0,0,0,0,0,0,0,0,0,0,1,2,2,2,3,0,0,0,0,0,0,0,0,0,0,0,0,0,0,1,2,3,0,0,0,0,0,0,0,0,0,0,0,5,0,23,0,23,0,23,0,23,0,23,0,5,0,0,0,0,0,0,0,0,0,0,0,19,20,
25,2,2,2,2,2,2,2,2,2,2,2,2,2,2,2,2,2,26,20,20,20,20,25,2,2,2,2,2,2,2,2,2,2,2,2,2,2,3,0,0,0,0,1,2,2,2,2,2,2,2,2,2,2,2,2,2,2,2,2,2,2,3,0,0,1,3,0,0,1,3,0,0,1,3,0,0,1,3,0,0,1,2,2,2,2,2,2,2,2,2,26,20,20,20,25,2,2,2,2,2,2,2,2,2,2,2,3,0,0,19,20,25,2,2,2,2,2,2,2,2,2,2,2,80,0,23,0,23,0,23,0,23,0,23,0,23,0,1,2,2,2,2,2,2,2,2,2,26,20,
20,20,20,20,20,20,20,20,20,20,20,20,20,20,20,20,20,20,20,20,20,20,20,20,20,20,20,20,20,20,20,20,20,20,20,20,20,20,21,0,0,0,0,19,20,20,20,20,20,20,20,20,20,20,20,20,20,20,20,20,20,20,21,0,0,19,21,0,0,19,21,0,0,19,21,0,0,19,21,0,0,19,20,20,20,20,20,20,20,20,20,20,20,20,20,20,20,20,20,20,20,20,20,20,20,20,20,21,0,0,19,20,20,20,20,20,20,20,20,20,20,20,20,20,21,0,23,0,23,0,23,0,23,0,23,0,23,0,19,20,20,20,20,20,20,20,20,20,20,20
</data>
 </layer>
 <objectgroup id="2" name="floorAndWallsCollider">
  <object id="2" x="4416" y="256" width="320" height="64"/>
  <object id="3" x="3616" y="256" width="352" height="64"/>
  <object id="104" x="704" y="192" width="64" height="32"/>
  <object id="105" x="736" y="160" width="32" height="32"/>
  <object id="141" x="4352" y="224" width="24.2374" height="96"/>
  <object id="143" x="4288" y="192" width="25.2269" height="128"/>
  <object id="144" x="4224" y="160" width="24.9044" height="160"/>
  <object id="145" x="4160" y="128" width="26.1945" height="192"/>
  <object id="146" x="4096" y="160" width="24.9044" height="160"/>
  <object id="147" x="3968" y="224" width="25.872" height="96"/>
  <object id="148" x="4032" y="192" width="25.5494" height="128"/>
  <object id="149" x="3520" y="224" width="96" height="96"/>
  <object id="150" x="2592" y="256" width="864" height="64"/>
  <object id="151" x="2912" y="224" width="160" height="32"/>
  <object id="152" x="2464" y="256" width="64" height="64"/>
  <object id="153" x="2080" y="256" width="64" height="64"/>
  <object id="154" x="2208" y="256" width="64" height="64"/>
  <object id="155" x="2336" y="256" width="64" height="64"/>
  <object id="156" x="2464" y="256" width="64" height="64"/>
  <object id="157" x="1376" y="256" width="640" height="64"/>
  <object id="158" x="1376" y="64" width="384" height="64"/>
  <object id="159" x="1856" y="64" width="128" height="64"/>
  <object id="160" x="1760" y="64" width="25.2269" height="32"/>
  <object id="161" x="1829.81" y="64" width="26.1945" height="32"/>
  <object id="163" x="32" y="256" width="1216" height="64"/>
  <object id="164" x="576" y="224" width="192" height="32"/>
  <object id="115" x="4736" y="0" width="64" height="320"/>
  <object id="136" x="640" y="0" width="480" height="32"/>
  <object id="137" x="768" y="32" width="288" height="32"/>
  <object id="139" x="0" y="0" width="32" height="320"/>
 </objectgroup>
 <objectgroup id="5" name="interactiveObjects">
  <object id="86" name="diamond" x="544" y="64" width="32" height="32"/>
  <object id="87" name="diamond" x="2144" y="64" width="32" height="32"/>
  <object id="94" name="diamond" x="4160" y="64" width="32" height="32"/>
  <object id="88" name="finishLine" x="4640" y="160" width="32" height="96"/>
  <object id="89" name="pit" x="1248" y="288" width="128" height="32"/>
  <object id="91" name="pit" x="2016" y="288" width="576" height="32"/>
  <object id="92" name="pit" x="3456" y="288" width="64" height="32"/>
  <object id="93" name="pit" x="4000" y="288" width="416" height="32"/>
  <object id="96" name="ladder" x="1792" y="64" width="32" height="192"/>
  <object id="98" name="bonusBlock" x="608" y="128" width="32" height="32"/>
  <object id="99" name="bonusBlock" x="640" y="128" width="32" height="32"/>
  <object id="166" name="diamond" x="1408" y="32" width="32" height="32"/>
 </objectgroup>
 <objectgroup id="4" name="actors">
  <object id="81" name="player" x="128" y="160" width="32" height="32"/>
  <object id="82" name="enemyStar" x="896" y="192" width="32" height="32">
   <properties>
    <property name="walkLength" type="int" value="5"/>
   </properties>
  </object>
  <object id="83" name="enemyStar" x="1408" y="192" width="32" height="32">
   <properties>
    <property name="walkLength" type="int" value="17"/>
   </properties>
  </object>
  <object id="97" name="enemyStar" x="4160" y="96" width="32" height="32">
   <properties>
    <property name="walkLength" type="int" value="0"/>
   </properties>
  </object>
 </objectgroup>
</map>
