<?xml version="1.0" encoding="UTF-8"?>
<map version="1.10" tiledversion="1.12.2" orientation="orthogonal" renderorder="right-down" width="150" height="10" tilewidth="32" tileheight="32" infinite="0" nextlayerid="5" nextobjectid="35">
 <tileset firstgid="1" source="terrain-tileset.tsx"/>
 <layer id="1" name="floorAndWalls" width="150" height="10">
  <data encoding="csv">
19,0,0,0,0,0,0,0,0,0,0,0,0,0,0,0,0,0,0,0,0,0,0,0,0,0,0,0,0,0,0,0,0,0,0,0,0,0,0,0,0,0,0,0,0,0,0,0,0,0,0,0,0,0,0,0,0,0,0,0,0,0,0,0,0,0,0,0,0,0,0,0,0,0,0,0,0,0,0,0,0,0,0,0,0,0,0,0,0,0,0,0,0,0,0,0,0,0,0,0,0,0,0,0,0,0,0,0,0,0,0,2,20,0,0,0,0,0,0,0,2,0,0,0,0,0,0,0,0,0,0,0,0,0,0,0,0,0,0,0,0,0,0,0,0,0,0,0,0,0,
19,0,0,0,0,0,0,0,0,0,0,0,0,0,0,0,0,0,0,0,0,0,0,0,0,0,0,0,0,0,0,0,0,0,0,0,0,0,0,0,0,0,0,0,0,0,0,0,0,0,0,0,0,0,0,0,0,0,0,0,0,0,0,0,0,0,0,0,0,0,0,0,0,0,0,0,0,0,0,0,0,0,0,0,0,0,0,0,0,0,0,0,0,0,0,0,0,0,0,0,0,0,0,0,0,0,0,0,0,0,2,20,0,0,0,0,0,0,0,0,20,2,0,0,0,0,0,0,0,0,0,0,0,0,0,0,0,0,0,0,0,0,0,0,0,0,0,0,0,0,
19,0,0,0,0,0,0,0,0,0,0,0,0,0,0,0,0,0,0,0,0,0,0,0,0,0,0,0,0,0,0,0,0,0,0,0,0,0,0,0,5,0,0,0,0,0,0,0,0,0,0,0,0,0,0,0,0,0,0,0,0,0,0,0,0,0,0,0,0,0,0,0,0,0,0,0,0,0,0,0,0,0,0,0,0,0,0,0,0,0,0,0,0,0,0,0,0,0,0,0,0,0,0,0,0,0,0,2,2,2,20,0,0,0,0,0,0,0,0,0,0,2,0,0,0,0,0,0,0,0,0,0,0,0,0,0,0,0,0,0,0,0,0,0,0,0,0,0,0,0,
19,0,0,0,0,0,0,0,0,0,0,0,0,0,0,0,0,0,0,0,0,0,0,0,0,0,0,0,0,0,0,0,0,0,0,0,0,0,5,0,23,0,0,0,0,0,0,0,0,0,0,0,0,0,0,0,0,0,0,0,0,0,0,0,0,0,0,0,0,0,0,0,0,0,0,0,0,0,0,0,0,0,0,0,0,0,0,0,0,0,0,0,0,0,0,0,0,0,0,0,0,0,0,0,0,0,2,20,0,0,0,0,0,0,0,0,1,2,3,0,0,20,2,0,0,0,0,0,0,0,0,0,0,0,0,0,0,0,0,0,0,0,0,0,0,0,0,0,0,0,
19,0,0,0,0,0,0,0,0,0,0,0,0,0,0,0,0,0,0,0,0,0,0,0,0,0,0,0,0,0,0,0,0,0,0,0,5,0,23,0,23,0,0,0,0,0,0,0,0,0,0,0,0,0,0,0,0,0,0,0,0,0,0,0,0,0,0,0,0,0,0,5,0,0,0,0,0,0,0,0,0,0,0,0,0,0,0,0,0,0,0,0,0,0,0,0,0,0,0,0,0,0,0,0,0,2,20,0,0,0,0,0,0,0,0,0,0,0,0,0,0,0,20,2,0,0,0,0,0,0,0,0,0,0,0,0,0,0,0,0,0,0,0,0,0,0,0,0,0,0,
19,0,0,0,0,0,0,0,0,0,0,0,0,0,0,0,0,0,0,0,0,0,0,0,0,0,0,0,0,0,0,0,0,0,5,0,23,0,23,0,23,0,0,0,0,0,0,0,0,0,0,0,0,0,5,0,0,0,0,0,0,0,0,0,0,0,0,1,2,3,0,23,0,0,73,74,74,74,74,74,74,74,74,75,0,0,0,0,0,0,0,0,0,0,0,2,2,0,0,0,0,0,2,2,2,20,0,0,0,0,0,0,2,2,0,0,0,0,0,0,0,0,20,20,0,0,0,0,0,0,0,0,0,77,0,0,77,0,0,77,0,0,0,0,0,0,0,0,0,0,
19,0,0,0,0,0,0,0,0,0,0,0,0,2,2,2,3,0,0,5,0,0,73,75,0,0,73,74,74,74,74,75,0,0,23,0,23,0,23,0,23,0,0,0,0,0,0,0,0,0,0,0,0,0,23,0,0,0,0,0,0,0,1,2,3,0,0,19,20,21,0,41,0,0,0,0,0,0,0,0,0,0,0,0,0,0,0,0,0,0,0,0,0,0,0,0,0,2,2,2,2,2,20,20,0,0,0,0,0,0,0,19,20,20,21,0,0,0,0,0,0,0,0,20,0,0,0,0,0,0,2,0,0,0,0,0,0,0,0,0,0,0,0,0,0,0,0,0,0,0,
19,0,0,0,0,0,0,0,0,0,0,0,2,20,20,20,21,0,0,23,0,0,0,0,0,0,0,0,0,0,0,0,0,0,23,0,23,0,23,0,23,0,1,2,2,2,2,2,2,2,2,2,2,2,21,0,0,1,2,3,0,0,19,20,21,0,0,37,38,39,0,0,0,0,0,0,0,0,0,0,0,0,0,0,0,0,1,2,2,2,2,2,2,0,0,0,0,0,0,0,0,0,0,0,0,0,0,0,0,0,19,20,20,20,20,21,0,0,0,0,0,0,0,0,0,0,0,0,0,2,20,0,0,0,0,0,0,0,0,0,0,0,0,2,0,0,0,0,0,0,
67,68,2,2,2,2,2,2,2,2,2,2,20,20,20,20,21,0,0,41,0,0,0,0,0,0,0,0,0,0,0,0,0,0,23,0,23,0,23,0,23,0,19,20,20,20,20,20,20,20,20,20,20,20,21,0,0,19,20,21,0,0,37,38,39,0,0,0,0,0,0,0,0,0,0,0,0,0,0,0,0,0,0,0,0,0,19,20,20,20,20,20,20,20,0,0,0,0,0,0,0,0,0,0,0,0,0,0,19,20,20,20,20,20,20,20,21,0,0,0,0,0,0,0,0,0,0,0,2,20,20,0,0,0,0,0,0,0,0,0,0,0,0,20,0,0,0,0,0,0,
37,38,38,38,38,38,38,38,38,38,38,38,38,38,38,38,39,0,0,0,0,0,0,0,0,0,0,0,0,0,0,0,0,0,41,0,41,0,41,0,41,0,37,38,38,38,38,38,38,38,38,38,38,38,39,0,0,37,38,39,0,0,0,0,0,0,0,0,0,0,0,0,0,0,0,0,0,0,0,0,0,0,0,0,0,0,37,38,38,38,38,38,38,38,38,38,38,2,2,38,38,38,2,38,38,38,38,38,20,20,20,20,20,20,20,20,20,2,38,38,38,38,2,2,2,2,2,2,20,20,20,2,2,2,2,2,2,2,2,2,2,2,2,20,2,2,2,2,2,2
</data>
 </layer>
 <objectgroup id="2" name="floorAndWallsCollider">
  <object id="10" x="475" y="-95" width="1"/>
  <object id="11" x="0" y="-1" width="34" height="256"/>
  <object id="21" x="33.5" y="256" width="29.5" height="32"/>
 </objectgroup>
 <objectgroup id="3" name="interactiveObjects">
  <object id="14" name="diamond" x="611.5" y="164.5" width="24" height="24"/>
  <object id="26" name="bonusBlock" x="3744.5" y="1.5" width="31" height="30"/>
  <object id="27" name="bonusBlock" x="4448" y="64" width="32" height="32"/>
  <object id="28" name="ladder" x="4192" y="192.333" width="32" height="95"/>
  <object id="29" name="finishLine" x="4671" y="0" width="31" height="287"/>
  <object id="30" name="diamond" x="3492" y="37.5" width="24" height="24"/>
  <object id="32" name="pit" x="1760" y="288" width="994.667" height="30.6667"/>
  <object id="33" name="pit" x="545.333" y="289.333" width="542.667" height="30.6667"/>
  <object id="34" x="821.333" y="-42.6667"/>
 </objectgroup>
 <objectgroup id="4" name="actors">
  <object id="15" name="enemyStar" x="895.333" y="161.333" width="34" height="30">
   <properties>
    <property name="walkLength" type="int" value="2"/>
   </properties>
  </object>
  <object id="17" name="enemyStar" x="1534.5" y="190" width="34" height="30">
   <properties>
    <property name="walkLength" type="int" value="5"/>
   </properties>
  </object>
  <object id="18" name="enemyStar" x="2496.33" y="127.667" width="34" height="30">
   <properties>
    <property name="walkLength" type="int" value="3"/>
   </properties>
  </object>
  <object id="19" name="enemyStar" x="3262.5" y="257.5" width="34" height="30">
   <properties>
    <property name="walkLength" type="int" value="3"/>
   </properties>
  </object>
  <object id="20" name="enemyStar" x="4382" y="257" width="34" height="30">
   <properties>
    <property name="walkLength" type="int" value="4"/>
   </properties>
  </object>
  <object id="24" name="player" x="65" y="160.5" width="30" height="29.5"/>
 </objectgroup>
</map>
