<?xml version="1.0" encoding="UTF-8"?>
<map version="1.10" tiledversion="1.12.1" orientation="orthogonal" renderorder="right-down" width="81" height="10" tilewidth="32" tileheight="32" infinite="0" backgroundcolor="#b2b4ff" nextlayerid="7" nextobjectid="62">
 <tileset firstgid="1" source="terrain-tileset.tsx"/>
 <layer id="1" name="floorAndWalls" width="81" height="10">
  <data encoding="csv">
21,0,0,0,0,0,0,0,0,0,0,0,0,0,0,0,0,0,0,0,0,0,0,0,0,0,0,0,0,0,0,0,0,0,0,0,0,0,0,0,0,0,0,0,0,0,0,0,0,0,0,0,0,0,0,0,0,0,0,0,0,0,0,0,0,0,0,0,0,0,0,0,0,0,0,0,0,0,0,0,19,
21,0,0,0,0,0,0,0,0,0,0,0,0,0,0,0,0,0,0,0,0,0,0,0,0,0,0,0,0,0,0,0,0,0,0,0,0,0,0,0,0,0,0,0,0,0,0,0,0,0,0,0,0,0,0,0,0,0,0,0,0,0,0,0,0,0,0,0,0,0,0,0,0,0,0,0,0,0,0,0,19,
21,0,0,0,0,0,0,0,0,0,0,0,0,0,0,0,0,0,0,0,0,0,0,0,0,0,0,0,0,0,0,0,0,0,0,0,0,0,0,0,0,0,0,0,0,0,0,0,0,0,0,0,0,0,0,0,0,0,0,0,0,0,0,0,0,0,0,0,0,0,0,0,0,0,0,0,0,0,0,0,19,
21,0,0,0,0,0,0,0,0,0,0,0,0,0,0,0,0,0,0,0,0,0,0,0,0,0,0,0,0,0,0,0,0,0,0,0,0,1,2,2,2,2,2,2,2,2,2,2,2,2,3,0,0,0,0,0,0,0,0,0,0,0,0,0,0,0,0,0,0,0,0,0,0,0,0,0,0,0,0,0,19,
21,0,0,0,0,0,0,0,0,0,0,0,0,0,0,0,0,0,0,0,0,0,0,0,0,0,0,0,0,0,0,0,0,0,0,0,1,26,7,38,38,38,38,38,38,38,38,38,38,38,39,0,0,0,0,0,0,0,0,0,0,0,0,0,0,0,0,0,0,0,0,0,0,0,0,0,0,0,0,0,19,
21,0,0,0,0,0,0,0,0,0,0,0,0,0,0,0,0,0,0,0,0,0,0,0,0,0,0,0,0,0,0,0,5,0,0,73,83,38,39,0,0,0,0,0,0,0,0,0,0,0,0,0,0,0,0,0,0,0,0,0,0,0,0,0,0,0,0,0,0,0,0,0,0,0,0,0,0,0,0,0,19,
21,0,0,0,0,0,0,0,0,0,0,0,0,1,3,0,0,73,75,0,0,0,0,0,0,0,0,0,0,0,0,1,80,0,0,0,0,0,0,0,0,0,0,0,0,0,0,0,0,0,0,0,0,0,0,0,1,2,2,3,0,0,73,75,0,0,0,0,0,0,0,0,0,0,0,0,0,0,0,0,19,
21,0,0,0,0,0,0,0,0,0,1,2,2,20,21,0,0,0,0,0,0,0,0,0,0,0,0,0,0,0,1,26,21,0,0,0,0,0,0,0,0,0,0,0,0,0,0,0,0,0,0,1,2,2,2,2,20,20,20,20,3,0,0,0,0,0,0,0,0,0,0,0,0,0,0,0,1,2,2,2,20,
25,2,2,2,2,2,2,2,2,2,20,20,20,20,20,2,2,2,2,0,0,0,0,2,2,2,2,2,2,2,26,20,21,0,0,0,0,1,2,2,2,2,0,0,1,2,2,2,2,2,2,20,20,20,20,20,20,20,20,20,20,2,2,2,0,0,0,0,1,2,2,2,2,2,2,2,20,20,20,20,20,
20,20,20,20,20,20,20,20,20,20,20,20,20,20,20,20,20,20,20,0,0,0,0,20,20,20,20,20,20,20,20,20,21,0,0,0,0,19,20,20,20,20,0,0,19,20,20,20,20,20,20,20,20,20,20,20,20,20,20,20,20,20,20,20,0,0,0,0,19,20,20,20,20,20,20,20,20,20,20,20,20
</data>
 </layer>
 <objectgroup id="2" name="floorAndWallsCollider">
  <object id="1" x="32" y="256" width="576" height="64"/>
  <object id="2" x="736" y="256" width="320" height="64"/>
  <object id="3" x="1408" y="256" width="640" height="64"/>
  <object id="4" x="2176" y="256" width="416" height="64"/>
  <object id="7" x="320" y="224" width="160" height="32"/>
  <object id="8" x="1120" y="160" width="128" height="32"/>
  <object id="9" x="1632" y="224" width="320" height="32"/>
  <object id="10" x="2432" y="224" width="160" height="32"/>
  <object id="39" x="1984" y="192" width="64" height="32"/>
  <object id="40" x="1024" y="160" width="32" height="32"/>
  <object id="41" x="960" y="224" width="96" height="32"/>
  <object id="42" x="1152" y="128" width="32" height="32"/>
  <object id="43" x="1184" y="96" width="448" height="64"/>
  <object id="44" x="1792" y="192" width="128" height="32"/>
  <object id="45" x="992" y="192" width="64" height="32"/>
  <object id="46" x="1184" y="256" width="160" height="64"/>
  <object id="47" x="416" y="192" width="64" height="32"/>
  <object id="48" x="544" y="192" width="64" height="27.5911"/>
  <object id="49" x="2560" y="0" width="32" height="224"/>
  <object id="52" x="658.812" y="173.415" height="0.829738"/>
  <object id="13" x="0" y="0" width="32" height="320"/>
 </objectgroup>
 <objectgroup id="5" name="interactiveObjects">
  <object id="15" name="coin" x="352" y="160" width="32" height="32"/>
  <object id="16" name="coin" x="384" y="160" width="32" height="32"/>
  <object id="17" name="coin" x="1024" y="96" width="32" height="32"/>
  <object id="18" name="coin" x="1184" y="224" width="32" height="32"/>
  <object id="19" name="coin" x="1728" y="128" width="32" height="32"/>
  <object id="20" name="coin" x="2016" y="128" width="32" height="32"/>
  <object id="21" name="coin" x="2368" y="160" width="32" height="32"/>
  <object id="26" name="bonusBlock" x="576" y="128" width="32" height="32"/>
  <object id="27" name="bonusBlock" x="1856" y="96" width="32" height="32"/>
  <object id="28" name="bonusBlock" x="2112" y="192" width="32" height="32"/>
  <object id="29" name="pit" x="608" y="288" width="128" height="32"/>
  <object id="30" name="pit" x="1344" y="288" width="64" height="32"/>
  <object id="31" name="pit" x="2048" y="288" width="128" height="32"/>
  <object id="60" name="pit" x="1056" y="288" width="128" height="32"/>
  <object id="61" name="finishLine" x="2496" y="128" width="32" height="96"/>
 </objectgroup>
 <objectgroup id="4" name="actors">
  <object id="35" name="player" x="128" y="160" width="32" height="32"/>
  <object id="36" name="enemyStar" x="768" y="192" width="32" height="32">
   <properties>
    <property name="walkLength" type="int" value="10"/>
   </properties>
  </object>
  <object id="37" name="enemyStar" x="2208" y="192" width="32" height="32">
   <properties>
    <property name="walkLength" type="int" value="12"/>
   </properties>
  </object>
 </objectgroup>
</map>
